!!!COM: Bach, Johann Sebastian
!!!OTA: Das wohltemperirte Clavier
!!!OPR: Das wohltemperierte Klavier
!!!OTL: Fuga 14, Vol. 2
!!!XEN: The Well-Tempered Clavier, Volume 2, Fugue 14.
!!!ONB: F-sharp minor, 3-part
!!!SCT: BWV 883b
!!!YEC: Copyright 1994, David Huron
!!!YEM: Rights to all derivative electronic formats reserved.
**kern	**kern	**kern
*staff2	*staff1	*staff1
*clefF4	*clefG2	*clefG2
*k[f#c#g#]	*k[f#c#g#]	*k[f#c#g#]
*M4/4	*M4/4	*M4/4
*f#:	*f#:	*f#:
*MM68	*MM68	*MM68
=1	=1	=1
1r	4r	1r
.	8r	.
.	8c#	.
.	8A	.
.	8F#	.
.	[4d	.
=2	=2	=2
1r	8d]	1r
.	16c#	.
.	16B	.
.	[4c#	.
.	8c#]	.
.	8f#	.
.	[4B	.
=3	=3	=3
1r	8B]	1r
.	16A	.
.	16G#	.
.	8A	.
.	8F#	.
.	2G#T	.
=4	=4	=4
1r	8F#	4r
.	8G#	.
.	8A	8r
.	8B	8f#
.	4c#	8e
.	.	8c#
.	8r	[4a
.	8d#	.
=5	=5	=5
1r	4e	8a]
.	.	16g#
.	.	16f#
.	8r	[4g#
.	8e	.
.	4A#	8g#]
.	.	8cc#
.	8r	[4f#
.	8B#	.
=6	=6	=6
1r	4c#	8f#]
.	.	16e
.	.	16d#
.	8r	8e
.	[8c#	8c#
.	8c#]	2d#T
.	16B#	.
.	16A#	.
.	8B#	.
.	8G#	.
=7	=7	=7
1r	4.e	8c#
.	.	8cc#
.	.	[4f#
.	8A	.
.	4.dn	8f#]
.	.	8b
.	.	[4e
.	8G#	.
=8	=8	=8
2r	4c#	8e]
.	.	4a
.	4B	.
.	.	4g#
4r	4A	.
.	.	4f#
8r	4G#	.
8C#	.	8e#
=9	=9	=9
8AA	4F#	4f#
8FF#	.	.
[4D	4r	8r
.	.	8b
8D]	4r	8g#
16C#	.	8en
16BB	.	.
[4C#	4E	8r
.	.	8a
=10	=10	=10
8C#]	4A	8f#
8F#	.	8d#
[4BB	8dn	8r
.	8B	8g#
8BB]	4G#	8e#
16AA	.	8c#
16GG#	.	.
8AA	8r	[4f#
8FF#	8A	.
=11	=11	=11
2GG#T	8B	4f#]
.	8d	.
.	8r	4e#
.	8G#	.
4FF#	8A	8f#
.	8c#	8a
[4D	8r	8b
.	8F#	8dd
=12	=12	=12
4D]	8G#	8r
.	8B	8g#
4C#	8r	8a
.	8A	8cc#
4BB	4d	8r
.	.	16f#
.	.	16g#
8r	4B	8.g#T
8E	.	.
.	.	32f#
.	.	32g#
=13	=13	=13
8C#	8e	4a
8AA	8c#	.
2F#	8d#	8r
.	8f#	8dd#
.	8r	8b#
.	8B#	8g#
4E	8c#	8r
.	8e	8cc#
=14	=14	=14
4D#	8r	4ff#
.	16A#	.
.	16B#	.
8r	8.B#T	4dd#
8G#	.	.
.	32A#	.
.	32B#	.
8E	4c#	8gg#
8C#	.	8ee
[4An	8r	8ff#
.	8f#	8aa
=15	=15	=15
4A]	8dn	8r
.	8B	8dd
[4G#	8r	8ee
.	8e	8gg#
8G#]	8c#	8r
8C#	8A	8cc#
[4F#	8r	8b
.	16d	8a
.	16c#	.
=16	=16	=16
4F#]	8B	4g#
.	8A	.
4E#	4G#T	8r
.	.	8cc#
8F#	4F#	8a
8A	.	8f#
8B	8r	[4dd
8d	8b	.
=17	=17	=17
8G#	4.e	8dd]
8E	.	16cc#
.	.	16b
8A	.	[4cc#
8c#	8e	.
8F#	[4a	8cc#]
8D#	.	8ff#
8G#	8a]	[4b
8B	16g#	.
.	16f#	.
=18	=18	=18
8E#	8g#	8b]
8C#	8e#	16a
.	.	16g#
8F#	[4f#	8a
8A	.	8f#
8B	8f#]	2g#
8G#	16en	.
.	16d#	.
8c#	[4e	.
8B	.	.
=19	=19	=19
8A#	8e]	4.f#
8F#	16dn	.
.	16c#	.
8B	2d	.
8An	.	8b
8G#	.	8e
8E	.	8g#
8F#	[4c#	8a
8A	.	8cc#
=20	=20	=20
8D	8c#]	4f#
8BB	8d	.
8E	8B	4g#
8EE	8e	.
8AA	4c#	4a
8A	.	.
8.G#	4r	4r
16F#	.	.
=21	=21	=21
8E#	8r	2r
8C#	8c#	.
2F#	8.B	.
.	16A	.
.	4.G#	8r
.	.	8dd
8E#	.	8.cc#
[8En	8c#	.
.	.	16b
=22	=22	=22
8E]	8F#	8a#
8D	8f#	8f#
8C#	8.e	2b
8BB	.	.
.	16d	.
8E	8c#	.
8C#	8gn	.
8F#	8.f#	8a#
8FF#	.	[8an
.	16e	.
=23	=23	=23
4BB	8d#	8a]
.	8B	8b
8r	2e	8.a
8C#	.	.
.	.	16g#
8AA	.	2f#
8c#	.	.
8.B	8d#	.
.	[8dn	.
16A	.	.
=24	=24	=24
8G#	8d]	4.e
8E	16c#	.
.	16B	.
2A	8c#	.
.	8f#	8a
.	8d	4.b
.	8B	.
8G#	[4e	.
8E	.	8g#
=25	=25	=25
4.A	8e]	4.cc#
.	8c#	.
.	[4f#	.
8F#	.	8a
4.B	8f#]	[2dd
.	8a	.
.	8.g#	.
8G#	.	.
.	16f#	.
=26	=26	=26
[2c#	8e	8dd]
.	8b	8dd
.	8a	8.cc#
.	8g#	.
.	.	16b
8c#]	8f#	4a
8c#	8e	.
8.B	8d	[4ff#
.	8c#	.
16A	.	.
=27	=27	=27
4G#	4B	8ff#]
.	.	8ee
4A#	[4f#	8.dd
.	.	16cc#
4B	8f#]	8dd
.	8d	8b
4Gn	8.c#	[4ee
.	16B	.
=28	=28	=28
4F#	8A#	8ee]
.	8F#	8ff#
8r	2B	8dd
8Gn	.	8b
8E	.	4cc#
8C#	.	.
[4F#	8A#	8r
.	8f#	8a#
=29	=29	=29
4F#]	8d	8b
.	8B	8dd
8E	[4gn	8.cc#
8D	.	.
.	.	16b
8C#	8g]	4.an
8AA	16f#	.
.	16e	.
8D	[4f#	.
8C#	.	8dd
=30	=30	=30
8BB	8f#]	4.gn
8D	8b	.
8.C#	[4e	.
.	.	8cc#
16BB	.	.
8AA#	8e]	4f#
8FF#	16d	.
.	16c#	.
[4BB	8d	4r
.	8B	.
=31	=31	=31
8BB]	2c#	8r
16AAn	.	8e#
16GG#	.	.
[4AA	.	8f#
.	.	8a
8AA]	4.B	8d#
16GG#	.	8f#
16FF#	.	.
8GG#	.	[4b
8EE	8g#	.
=32	=32	=32
8C#	2e	8b]
8CC#	.	16a
.	.	16g#
[4C#	.	8a
.	.	8cc#
8C#]	4.d	8f#
16BB	.	8a
16AA	.	.
8BB	.	[4dd
8GG#	8b	.
=33	=33	=33
8EE#	8g#	8dd]
8G#	8e#	8dd
8E#	8r	8.cc#
8C#	[8g#	.
.	.	16b
8F#	8g#]	[2a
8G#	16f#	.
.	16e#	.
8A	8f#	.
8F#	8d#	.
=34	=34	=34
8G#	2B#	8a]
8GG#	.	16g#
.	.	16f#
8r	.	8g#
8G#	.	8d#
8E	8c#	8e
8C#	8r	8ee
[4A	4r	8.dd#
.	.	16cc#
=35	=35	=35
8A]	8r	8b#
16G#	8dd#	8ff#
16F#	.	.
[4G#	8.cc#	8ee
.	.	8dd#
.	16b#	.
8G#]	8cc#	4ee
8c#	8bn	.
[4F#	8a	8r
.	8f#	16dd#
.	.	16cc#
=36	=36	=36
8F#]	8B#	8gg#
16E	8d#	8b#
16D#	.	.
8E	8G#	2cc#
8C#	8g#	.
4D#	16f#	.
.	16g#	.
.	16f#	.
.	16e	.
4G#	16f#	4b#
.	16e	.
.	16d#	.
.	16f#	.
=37	=37	=37
4C#	16e	4cc#
.	16f#	.
.	16e	.
.	16d#	.
4r	16e	8r
.	16d#	.
.	16c#	8cc#
.	16e	.
2r	8d#	16bn
.	.	16cc#
.	8g#	16b
.	.	16a
.	8c#	16b
.	.	16a
.	8e#	16g#
.	.	16b
=38	=38	=38
4r	16f#	16a
.	16dn	16b
.	16c#	16a
.	16B	16g#
8r	16c#	16a
.	16A	16g#
8F#	[8d	16f#
.	.	16a
16E	8d]	8g#
16F#	.	.
16E	8G#	8cc#
16D	.	.
16E	8A#	8f#
16D	.	.
16C#	8c#	8a#
16E	.	.
=39	=39	=39
16D	8F#	8b
16E	.	.
16D	8r	8f#
16C#	.	.
16D	8r	2b
16C#	.	.
16BB	8f#	.
16D	.	.
8C#	16e	.
.	16f#	.
8FF#	16e	.
.	16d#	.
8F#	16e	[4a
.	16d#	.
8A	16c#	.
.	16e	.
=40	=40	=40
8BB	16d#	4a]
.	16e	.
8B	16d#	.
.	16c#	.
8E	16d#	2g#
.	16c#	.
8G#	16B#	.
.	16d#	.
8AA	16c#	.
.	16d#	.
8GG#	16c#	.
.	16B#	.
8AA	16c#	4f#
.	16e	.
8A	16d#	.
.	16c#	.
=41	=41	=41
16G#	8B#	8g#
16A	.	.
16G#	8d#	8b#
16F#	.	.
16G#	8e	8cc#
16F#	.	.
16E	8g#	8ee
16G#	.	.
16F#	8r	8r
16G#	.	.
16F#	8g#	8ee
16E	.	.
16F#	8f#	8dd#
16E	.	.
16D#	[8a	[8ff#
16F#	.	.
=42	=42	=42
16E	8a]	8ff#]
16F#	.	.
16E	16g#	8b#
16D#	16f#	.
16E	8g#	[4cc#
16D#	.	.
16C#	8a#	.
16E	.	.
8FF##	16d#	8cc#]
.	16e	.
8AA#	16d#	8f##
.	16c#	.
8BB	16d#	[4g#
.	16c#	.
8E	16Bn	.
.	16d#	.
=43	=43	=43
8AA#	16c#	8g#]
.	16d#	.
8C#	16c#	8a#
.	16B	.
8D#	16c#	8d#
.	16B	.
8DD#	16A#	8f##
.	16c#	.
8GG#	16B	4g#
.	16c#	.
16G#	16d#	.
16F#	16B	.
8G#	[4e	16r
.	.	16an
8C#	.	16b
.	.	16g#
=44	=44	=44
8FF#	4e]	16a
.	.	16b
16F#	.	16a
16E	.	16g#
8F#	4d#	16a
.	.	16g#
8BB	.	16f#
.	.	16a
16E	4e	16g#
16F#	.	16a
16G#	.	16b
16E	.	16g#
16A	16r	[4cc#
16B	16b	.
16c#	16a	.
16A	16g#	.
=45	=45	=45
16dn	4.f#	8cc#]
16e	.	.
16d	.	8cc#
16c#	.	.
16d	.	[4b
16c#	.	.
16B	8f#	.
16d	.	.
16c#	4e	16b]
16d	.	16b
16c#	.	16a
16B	.	16g#
16c#	4r	16a
16B	.	16b
16A	.	16cc#
16c#	.	16a
=46	=46	=46
4.B	8r	16dd
.	.	16ee
.	8a	16dd
.	.	16cc#
.	[4g#	16dd
.	.	16cc#
8e	.	16b
.	.	16dd
4.A	8g#]	16cc#
.	.	16dd
.	8c#	16cc#
.	.	16b
.	[4f#	16cc#
.	.	16b
8d	.	16a
.	.	16cc#
=47	=47	=47
8G#	16f#]	[2b
.	16a	.
8B	16g#	.
.	16f#	.
8E#	16g#	.
.	16f#	.
8C#	16e#	.
.	16g#	.
4.F#	8f#	16b]
.	.	16g#
.	8c#	16a#
.	.	16b
.	[4d	16a#
.	.	16b
8F#	.	16cc#
.	.	16a#
=48	=48	=48
4.Gn	8d]	16b
.	.	16a#
.	8d#	16b
.	.	16cc#
.	[4e	16b
.	.	16cc#
8G#	.	16ddn
.	.	16b
4.A	8e]	16cc#
.	.	16b
.	8e#	16cc#
.	.	16dd
.	[4f#	16cc#
.	.	16dd
8A#	.	16een
.	.	16cc#
=49	=49	=49
8B	2f#_	16dd
.	.	16ee
8F#	.	16dd
.	.	16cc#
8BB	.	16dd
.	.	16cc#
8D	.	16b
.	.	16dd
8E	16f#]	[2gn
.	16f#	.
8F#	16e	.
.	16d	.
8Gn	16e	.
.	16d	.
8E	16c#	.
.	16e	.
=50	=50	=50
8C#	[2A	16g]
.	.	16gn
8AA	.	16f#
.	.	16e
8D	.	16f#
.	.	16e
8FF#	.	16d
.	.	16f#
8GGn	16A]	4B
.	16A	.
8BB	16Gn	.
.	16F#	.
8EE	16G	4c#
.	16F#	.
8AA	16E	.
.	16G	.
=51	=51	=51
16D	8F#	8d
16C#	.	.
16D	8r	8f#
16E	.	.
16D	8r	[4b
16Gn	.	.
16F#	8B	.
16G	.	.
16C#	4e	8b]
16BB	.	.
16C#	.	16a#
16D	.	16g#
16C#	8r	4a#
16F#	.	.
16E	8f#	.
16F#	.	.
=52	=52	=52
16BB	8d	4b
16C#	.	.
16D	8B	.
16BB	.	.
16E	[4gn	8r
16D	.	.
16C#	.	8ee
16BB	.	.
16C#	8g]	4.an
16E	.	.
16D	16f#	.
16C#	16e	.
16D	[4f#	.
16E	.	.
16F#	.	8dd
16D	.	.
=53	=53	=53
16E	8f#]	4.gn
16D	.	.
16E	8b	.
16F#	.	.
16Gn	[4e	.
16F#	.	.
16E	.	8ccn
16G	.	.
16F#	8e]	8a#
16G#	.	.
16A#	16d	[8f#
16F#	16c#	.
16B	8d	16f#]
16BB	.	16b
[8B	8B	16cc#
.	.	16dd
=54	=54	=54
16B]	2c#	8e#
16An	.	.
16G#	.	8cc#
16B	.	.
16A	.	[4f#
16G#	.	.
16F#	.	.
16A	.	.
16G#	4B	8f#]
16A	.	.
16G#	.	16e#
16F#	.	16f#
16E#	4r	16g#
16F#	.	16a
16G#	.	16b
16E#	.	16g#
=55	=55	=55
8F#	4r	16b
.	.	16a
16G#	.	16g#
16A	.	16f#
16B	16r	[4dd
16A	16cc#	.
16G#	16b	.
16F#	16a	.
16E	[4g#	8dd]
16F#	.	.
16E	.	16cc#
16D	.	16b
16E	16g#]	[4cc#
16D	16b	.
16C#	16a	.
16E	16g#	.
=56	=56	=56
16D	8f#	8cc#]
16E	.	.
16D	8a	8ff#
16C#	.	.
16D	8.g#	[4b
16C#	.	.
16BB	.	.
16D	16f#	.
16C#	8e#	8b]
16D	.	.
16C#	8c#	16a
16BB	.	16g#
16C#	[4f#	8a
16BB	.	.
16AA	.	8f#
16C#	.	.
=57	=57	=57
16BB	4f#]	2g#
16C#	.	.
16BB	.	.
16AA	.	.
16BB	4e#	.
16AA	.	.
16GG#	.	.
16BB	.	.
16AA	4f#	8f#
16GG#	.	.
16FF#	.	8cc#
16GG#	.	.
16AA	4r	8ff#
16BB	.	.
16C#	.	8aa
16D#	.	.
=58	=58	=58
16E	8r	[2gg#
16D#	.	.
16C#	8g#	.
16D#	.	.
16E	8cc#	.
16F#	.	.
16G#	8ee	.
16A#	.	.
16B#	[2dd#	8gg#]
16A#	.	.
16B#	.	8aa
16c#	.	.
16B#	.	8gg#
16c#	.	.
16d#	.	8ff#
16B#	.	.
=59	=59	=59
16c#	8dd#]	[2ee
16d#	.	.
16e	8g#	.
16d#	.	.
16c#	8cc#	.
16Bn	.	.
16A	8b	.
16G#	.	.
16F#	[2a	8ee]
16E	.	.
16F#	.	8ee
16G#	.	.
16F#	.	8dd#
16G#	.	.
16A	.	8ff#
16F#	.	.
=60	=60	=60
16G#	8a]	4.b#
16F#	.	.
16G#	8d#	.
16A	.	.
16G#	8g#	.
16F#	.	.
16E	[8f#	8dd#
16D#	.	.
8E	16f#]	4g#
.	16f#	.
8C#	16e	.
.	16d#	.
[4A	16c#	8r
.	16d#	.
.	16e	8cc#
.	16c#	.
=61	=61	=61
8A]	4d#	16b
.	.	16cc#
16G#	.	16b
16F#	.	16a
[4G#	8r	16b
.	.	16a
.	8e	16g#
.	.	16b
8G#]	8c#	16a
.	.	16b
8c#	8e	16a
.	.	16g#
[4F#	8.d#	16a
.	.	16g#
.	.	16f#
.	16c#	16a
=62	=62	=62
8F#]	8B#	16g#
.	.	16a
16E	8G#	16g#
16D#	.	16f#
8E	2c#	16g#
.	.	16f#
8C#	.	16e
.	.	16g#
2D#	.	16f#
.	.	16g#
.	.	16f#
.	.	16e
.	4B	16f#
.	.	16e
.	.	16d#
.	.	16f#
=63	=63	=63
16C#	8c#	4e
16BB#	.	.
16C#	8G#	.
16D#	.	.
16E	8c#	4r
16F#	.	.
16Gn	8e	.
16E	.	.
16F#	4A#	8r
16G	.	.
16F#	.	8gn
16E	.	.
16Dn	8B	8f#
16C#	.	.
16BBn	[8c#	8e
16AA#	.	.
=64	=64	=64
16BB	8c#]	4d
16FF#	.	.
16BB	8F#	.
16C#	.	.
16D	8B	4r
16E	.	.
16F#	8d	.
16D	.	.
16E	4G#	8r
16F#	.	.
16E	.	8f#
16D	.	.
16C#	8A	8e
16BB	.	.
16AA	[8B	8d
16GG#	.	.
=65	=65	=65
16AA	8B]	4.c#
16EE	.	.
16AA	16A	.
16BB	16G#	.
16C#	[4A	.
16D	.	.
16E	.	8c#
16C#	.	.
16D	8A]	[4f#
16E	.	.
16D	16B	.
16C#	16c#	.
16BB	[4d	8f#]
16AA	.	.
16GG#	.	16e#
16FF#	.	16f#
=66	=66	=66
8EE#	16d]	8g#
.	16c#	.
8CC#	16d#	16f#
.	16e#	16g#
2FF#	16f#	8a
.	16g#	.
.	16a	8r
.	16f#	.
.	16b	4r
.	16cc#	.
.	16b	.
.	16a	.
4EE#	16b	8r
.	16a	.
.	16g#	8cc#
.	16a	.
=67	=67	=67
16FF#	8f#	8a
16F#	.	.
16G#	8r	8f#
16A	.	.
16B	8r	[4dd
16c#	.	.
16B	8f#	.
16A	.	.
4G#	16e	8dd]
.	16f#	.
.	16e	16cc#
.	16d	16b
8r	16e	[4cc#
.	16d	.
8A#	16c#	.
.	16e	.
=68	=68	=68
8B	16d	8cc#]
.	16e	.
8An	16d	8ff#
.	16c#	.
8.G#	16d	[4b
.	16c#	.
.	16B	.
16F#	16d	.
8E#	16c#	8b]
.	16d	.
8C#	16c#	16a
.	16B	16g#
[4F#	16c#	8a
.	16B	.
.	16A	8f#
.	16c#	.
=69	=69	=69
4F#]	16B	[2g#
.	16c#	.
.	16B	.
.	16A	.
4E#	16B	.
.	16A	.
.	16G#	.
.	16B	.
8F#	8A	16g#]
.	.	8f#
8D	8B	.
.	.	[16e#
8AA	8c#	16e#]
.	.	8f#
8BB	8d	.
.	.	16g#
=70	=70	=70
4C#	4A	8c#
.	.	4f#
4CC#	4G#	.
.	.	8e#
2FF#;	2F#;	2f#;
==	==	==
*-	*-	*-
!!!CDT: 1685/3/-1750/7/28
!!!OCY: Deutschland
!!!PPP: Leipzig
!!!ODT: 1738//-1742//
!!!PDT: 1739//-1742//
!!!AFR: fuga; fugue
!!!AST: polyphony
!!!AMT: simple quadruple
!!!SCA: Bach-Werke-Verzeichnis
!!!YOR: Bach Gesellschaft
!!!SMS: British Library, various
!!!AIN: cemba; clavi
!!!EEV: 1.0
!!!RDT: 1986 December 7
!!!YER: 1994 August 10
!!!EFL: 38/48
!!!VTS: 3325893651
